X: 10082
T: OWEN'S HORNPIPE
C: Bob McQuillen 13 Nov 93
B: Bob's Note Book 10 #82
%R: hornpipe, reel
Z: 2020 John Chambers <jc:trillian.mit.edu>
M: C
L: 1/8
K: D
dB \
| A2AB dBAF | EDFA BAdB | A2AB dBAB | defd e2dB |\
| ABAF Adfd | Bdgd Adfa | bagf gecd | e2d2 d2  :|
|: df \
| a2a2 faba | fded BAde | f2dB ABde | fdgf e2df |\
| a2ba faba | fded B2de | fafd Aceg | f2d2 d2  :|
%%begintext align
%% Owen Miller is the
%% youngest of Randy & Kathy Miller's 3 children, and it's always
%% fun to see him and the others doing their "thing" when I'm
%% over that way - "that way" being East Alstead (pro. AL-Stead) NH -
%% Say, Owen, ask your Dad about the cat that plays the piano at
%% the dances! Well, it's _almost_ true!
%%endtext

%%sep 1 1 500

%%sep 1 1 500

